projects/js-packages/social-logos/src/svg/woocommerce.svg

<svg enable-background="new 0 0 24 24" viewBox="0 0 24 24" xmlns="http://www.w3.org/2000/svg"><path d="m19 2h-14c-1.7 0-3 1.3-3 3v11c0 1.7 1.3 3 3 3h4l6 3-1-3h5c1.7 0 3-1.3 3-3v-11c0-1.7-1.3-3-3-3zm-1.6 4.5c-.4.8-.8 2.1-1 3.9-.3 1.8-.4 3.1-.3 4.1 0 .3 0 .5-.1.7s-.3.4-.6.4-.6-.1-.9-.4c-1-1-1.8-2.6-2.4-4.6-.7 1.4-1.2 2.4-1.6 3.1-.6 1.2-1.2 1.8-1.6 1.9-.3 0-.5-.2-.8-.7-.5-1.4-1.1-4.2-1.7-8.2 0-.3 0-.5.2-.7.1-.2.4-.3.7-.4.5 0 .9.2.9.8.3 2.3.7 4.2 1.1 5.7l2.4-4.5c.2-.4.4-.6.8-.6.5 0 .8.3.9.9.3 1.4.6 2.6 1 3.7.3-2.7.8-4.7 1.4-5.9.2-.3.4-.5.7-.5.2 0 .5.1.7.2.2.2.3.4.3.6s0 .4-.1.5z"/></svg>

<?xml version="1.0" encoding="utf-8"?>
<!-- Generator: Adobe Illustrator 21.1.0, SVG Export Plug-In . SVG Version: 6.00 Build 0)  -->
<svg version="1.1" id="Layer_1" xmlns="http://www.w3.org/2000/svg" xmlns:xlink="http://www.w3.org/1999/xlink" x="0px" y="0px"
	 viewBox="0 0 24 24" style="enable-background:new 0 0 24 24;" xml:space="preserve">
<path d="M19,2H5C3.3,2,2,3.3,2,5v11c0,1.7,1.3,3,3,3h4l6,3l-1-3h5c1.7,0,3-1.3,3-3V5C22,3.3,20.7,2,19,2z M17.4,6.5
	c-0.4,0.8-0.8,2.1-1,3.9c-0.3,1.8-0.4,3.1-0.3,4.1c0,0.3,0,0.5-0.1,0.7s-0.3,0.4-0.6,0.4s-0.6-0.1-0.9-0.4c-1-1-1.8-2.6-2.4-4.6
	c-0.7,1.4-1.2,2.4-1.6,3.1c-0.6,1.2-1.2,1.8-1.6,1.9c-0.3,0-0.5-0.2-0.8-0.7C7.6,13.5,7,10.7,6.4,6.7c0-0.3,0-0.5,0.2-0.7
	C6.7,5.8,7,5.7,7.3,5.6c0.5,0,0.9,0.2,0.9,0.8c0.3,2.3,0.7,4.2,1.1,5.7l2.4-4.5C11.9,7.2,12.1,7,12.5,7c0.5,0,0.8,0.3,0.9,0.9
	c0.3,1.4,0.6,2.6,1,3.7c0.3-2.7,0.8-4.7,1.4-5.9c0.2-0.3,0.4-0.5,0.7-0.5c0.2,0,0.5,0.1,0.7,0.2c0.2,0.2,0.3,0.4,0.3,0.6
	S17.5,6.4,17.4,6.5z"/>
</svg>
